src/icons/SVG/48px/Service_Delivery_Delivery--Locker_48px.svg

<svg width="48" height="48" viewBox="0 0 48 48" fill="none" xmlns="http://www.w3.org/2000/svg">
  <g id="Square"> </g>
  <g id="Icon">
<path id="Union" fill-rule="evenodd" clip-rule="evenodd" d="M7 29V23H15V29H7ZM17 23V21V15V13V7H31V29H17V23ZM31 31H17V41H31V31ZM33 41V31H41V41H33ZM33 44H31H17H15H6C4.89543 44 4 43.1046 4 42V6C4 4.89543 4.89543 4 6 4H15H17H31H33H42C43.1046 4 44 4.89543 44 6V13V15V21V23V29V31V42C44 43.1046 43.1046 44 42 44H33ZM33 7V13H41V7H33ZM33 15V21H41V15H33ZM33 23H41V29H33V23ZM15 21V15H7V21H15ZM15 7V13H7V7H15ZM15 41V31H7V41H15ZM27 15H21V21H27V15ZM21 13C19.8954 13 19 13.8954 19 15V21V23C19 24.1046 19.8954 25 21 25H27C28.1046 25 29 24.1046 29 23V21V15C29 13.8954 28.1046 13 27 13H21Z" fill="black"/>
</g>
</svg>

<svg xmlns="http://www.w3.org/2000/svg" viewBox="0 0 48 48">
  <g id="Square"> </g>
  <path fill-rule="evenodd" d="M7 29v-6h8v6H7zm10-6V7h14v22H17v-6zm14 8H17v10h14V31zm2 10V31h8v10h-8zm0 3H6a2 2 0 01-2-2V6a2 2 0 012-2h36a2 2 0 012 2v36a2 2 0 01-2 2h-9zm0-37v6h8V7h-8zm0 8v6h8v-6h-8zm0 8h8v6h-8v-6zm-18-2v-6H7v6h8zm0-14v6H7V7h8zm0 34V31H7v10h8zm12-26h-6v6h6v-6zm-6-2a2 2 0 00-2 2v8a2 2 0 002 2h6a2 2 0 002-2v-8a2 2 0 00-2-2h-6z"/>
</svg>
